!!!OTL: Cruel Mother
!!!ONM: 2.
**kern
*clefG2
*k[f#]
*G:
*M4/4
*MM120
{4b
=1
4dd
4b
4cc
4a
=2
4b
(8a
8f#)
4.d
8r}
=3
{4.dd
8b
4cc
8a
8a
=4
(4b
4cc)
4dd}
{4b
=5
4dd
4b
4cc
8a
8a
=6
4b
4g
4.d
8r}
=7
{4g
8g
8g
4g
4d
=8
2g
2g}
==
*-
!!!CNT: Folksongs of Maritime Canada
!!!MRD: 1928///-1932///
!!!OCL: Helen Creighton
!!!YOR: Songs and Ballads from Nova Scotia
!!!PPR: J.M. Dent & Sons, Limited
!!!PPP: Toronto, Canada
!!!PDT: 1932///
!!!reprint: Dover Publications, 1992: ISBN 0-486-21703-5
!!!ENC1: Craig Stuart Sapp (music and bibliographic data)                       
!!!ENC2: Marcus Pearce (phrase markings and key designations)                   
!!!ENC3: Darrell Conklin (phrase markings and key designations)   
!!!END: 2002/04/10/
!!!EEV: 2004/06/05
!!!MPN: Mr. Ben Henneberry
!!!PPG: 3
!!!EFL: 2/152
!!!ARE: Canada; Nova Scotia
!!!verses: 17
!!!VTS: 1626060861
